src/icons/logos/tail-IB.svg

<svg>
    <defs>
        <path d="M659.5555,1 C670.3635,1 679.1255,9.764 679.1255,20.575 C679.1255,21.731 679.025,22.864 678.833,23.965 L521.3915,631.934 C518.5705,638.453 508.106,652.3145 487.193,652.75 L486.556,652.759 L2,652.838 C338.535,231.2945 507.627,19.5075 509.275,17.477 C516.5705,8.4935 528.951,1.148 541.5525,1 L659.5555,1 Z" id="path-1"></path>
    </defs>
    <g id="IBERIA" stroke="none" stroke-width="1" fill="none" fill-rule="evenodd">
        <g id="Mask-Raw" transform="translate(88.000000, 88.000000)">
            <path d="M659.5555,0.25 L541.5525,0.25 C529.417951,0.392464104 516.653519,7.20156168 508.692801,17.0041958 L504.143997,22.693252 L408.78043,142.119216 L0.441350848,653.588254 L486.556122,653.509 L487.203595,653.499925 C496.850749,653.299046 504.993321,650.296167 511.536706,645.215715 C516.398031,641.441257 520.090369,636.67697 521.967184,632.487618 L522.102948,632.178405 L679.55905,24.1530201 L679.57185,24.0938457 C679.773302,22.9386432 679.8755,21.7624542 679.8755,20.575 C679.8755,9.34991032 670.777837,0.25 659.5555,0.25 Z M541.561308,1.74994828 L659.5555,1.74994828 C669.949327,1.74994828 678.3755,10.1782545 678.3755,20.575 L678.3755,20.9873085 C678.353341,21.8108328 678.282538,22.6275948 678.159826,23.4338938 L678.099,23.806 L520.6795,631.689 L520.703183,631.636141 C518.963128,635.657204 515.375715,640.335962 510.616794,644.03091 C504.32299,648.917581 496.490164,651.80623 487.177385,652.000163 L486.545405,652.009075 L3.558,652.0875 L468.817257,69.3318426 L505.306926,23.640727 L509.555328,18.3259168 L509.857335,17.9496367 C517.549486,8.47771051 529.904809,1.88684959 541.561308,1.74994828 Z" id="BG" fill="#000000" fill-rule="nonzero"></path>
            <mask id="mask-2" fill="white">
                <use xlink:href="#path-1"></use>
            </mask>
            <use id="FG" fill="#FFFFFF" xlink:href="#path-1"></use>
            <g id="IB" mask="url(#mask-2)" fill-rule="nonzero">
                <g transform="translate(348.000000, 327.000000) scale(-1, 1) translate(-348.000000, -327.000000) translate(-32.000000, -5.000000)" id="Path">
                    <path d="M208.329496,-2.27373675e-13 C209.552538,-2.27373675e-13 210.723408,0.464300475 211.608969,1.28831265 L211.927225,1.61397443 L489.314967,354.483045 C432.851131,319.37368 176.930466,159.65186 45.2754324,173.356245 C39.6408208,173.94277 35.2681012,171.741882 31.7624709,169.950693 L0.517063165,10.1697661 C-0.0346299935,7.34920122 2.01011947,4.71866953 4.82561138,4.4853579 L208.329496,-2.27373675e-13 Z" fill="#EBBD3D"></path>
                    <path d="M155.255986,659.240163 L75.8447179,253.156351 L84.003123,253.49708 C139.429329,256.007781 214.621036,263.264836 251.301273,273.043649 C342.928426,297.473122 429.212289,334.545194 512.004659,379.593219 L758.835718,657.517824 C760.420618,659.302332 760.016994,661.801314 758.468493,663.156351 L470.226272,663.156351 L470.226272,663.156351 L159.071869,662.109863 C157.288459,662.103849 155.742084,660.921179 155.255986,659.240163 Z" fill="#CF0012"></path>
                </g>
            </g>
        </g>
    </g>
</svg>

<svg>
  <defs>
    <path d="M659.556 1c10.808 0 19.57 8.764 19.57 19.575 0 1.156-.101 2.289-.293 3.39L521.391 631.934c-2.821 6.519-13.285 20.38-34.198 20.816l-.637.009L2 652.838 509.275 17.477C516.571 8.494 528.951 1.148 541.553 1h118.003z" id="A"/></defs><g transform="translate(88 88)" fill="none" fill-rule="evenodd"><path d="M659.556.25H541.553c-12.135.142-24.899 6.952-32.86 16.754L.441 653.588l486.762-.088c9.647-.201 17.79-3.204 24.333-8.284 4.861-3.774 8.554-8.539 10.43-12.728l.136-.309L679.572 24.094c.201-1.155.304-2.331.304-3.519 0-11.225-9.098-20.325-20.32-20.325zm-117.994 1.5h117.994c10.394 0 18.82 8.428 18.82 18.825v.412c-.022.824-.093 1.64-.216 2.447l-.061.372-157.42 607.883c-1.716 3.968-5.304 8.647-10.063 12.342-6.294 4.887-14.127 7.775-23.439 7.969l-.632.009-482.987.078L509.857 17.95c7.692-9.472 20.047-16.063 31.704-16.2z" fill="#000" fill-rule="nonzero"/><mask id="B" fill="#fff"><use xlink:href="#A"/></mask><use fill="#fff" xlink:href="#A"/><g mask="url(#B)" fill-rule="nonzero"><g transform="matrix(-1 0 0 1 769 -130)"><path d="M219.852.156c1.288 0 2.522.551 3.455 1.53l.335.387 292.203 419.083c-59.606-75.269-279.308-189.269-435-189.269-5.996 0-43.298-27.763-46.991-29.89L.94 12.234C.359 8.885 2.513 5.76 5.478 5.483L219.852.156z" fill="#ebbd3d"/><path d="M164.436 783.505L80.845 307.131l8.588.405c58.343 2.982 148.458 16.946 187.069 28.561 96.45 29.017 176.309 77.026 263.459 130.534l259.822 314.828c1.668 2.12 1.243 5.088-.387 6.697H495.983l-327.531-1.243c-1.877-.007-3.505-1.412-4.017-3.409z" fill="#cf0012"/></g></g></g></svg>
